icons/arrow-left-contained-2.svg

<svg fill="none" viewBox="0 0 24 24"><path fill="currentColor" d="M10.5 16.9a1 1 0 1 0 1.6-1.3zm-2.7-4.9-.8-.6a1 1 0 0 0 0 1.2zm4.3-3.6a1 1 0 0 0-1.6-1.3zm4.1 4.6a1 1 0 0 0 0-2zm-4.1 2.6-3.6-4.2-1.5 1.2 3.5 4.3zm-3.6-3 3.6-4.2-1.6-1.3-3.5 4.3zm-.7.4h8.4v-2h-8.4zm-1.9-7a8.6 8.6 0 0 1 12.2 0l1.4-1.5c-4.1-4.1-10.9-4.1-15 0zm12.2 0a8.6 8.6 0 0 1 0 12l1.4 1.5c4.1-4.1 4.1-10.9 0-15zm0 12a8.6 8.6 0 0 1-12.2 0l-1.4 1.5c4.1 4.1 10.9 4.1 15 0zm-12.2 0a8.6 8.6 0 0 1 0-12l-1.4-1.5c-4.1 4.1-4.1 10.9 0 15z"/></svg>

<svg fill="none" viewBox="0 0 24 24"><path fill="currentColor" d="M10.5 16.9a1 1 0 1 0 1.6-1.3zM7.8 12l-.8-.6a1 1 0 0 0 0 1.2zM12 8.4a1 1 0 0 0-1.6-1.3zm4.1 4.6a1 1 0 0 0 0-2zM12 15.6l-3.6-4.2L7 12.6l3.5 4.3zm-3.6-3L12 8.4l-1.6-1.3L7 11.4zm-.7.4h8.4v-2H7.8zM5.9 6a8.6 8.6 0 0 1 12.2 0l1.4-1.5C15.4.4 8.6.4 4.5 4.5zm12.2 0a8.6 8.6 0 0 1 0 12l1.4 1.5c4.1-4.1 4.1-10.9 0-15zm0 12a8.6 8.6 0 0 1-12.2 0l-1.4 1.5c4.1 4.1 10.9 4.1 15 0zM5.9 18A8.6 8.6 0 0 1 6 6L4.5 4.4c-4.1 4.1-4.1 10.9 0 15z"/></svg>
